assets/cursors/north.svg

<svg height="13.5pt" viewBox="0 0 13.5 13.5" width="13.5pt" xmlns="http://www.w3.org/2000/svg" xmlns:xlink="http://www.w3.org/1999/xlink"><clipPath id="a"><path d="m0 0h13v13.5h-13zm0 0"/></clipPath><g clip-path="url(#a)"><path d="m8.757812 13.027344h-4.242187v-6.398438h-4.242187s6.363281-6.363281 6.363281-6.363281 6.363281 6.363281 6.363281 6.363281h-4.242188zm0 0" fill="#ebebeb" fill-rule="evenodd"/></g><path d="m17.515625 26.054688h-8.484375v-12.796876h-8.484375s12.726563-12.726562 12.726563-12.726562 12.726562 12.726562 12.726562 12.726562h-8.484375zm0 0" fill="none" stroke="#000" stroke-linecap="square" stroke-miterlimit="1.414214" transform="scale(.5)"/></svg>

<?xml version="1.0" encoding="UTF-8"?>
<svg xmlns="http://www.w3.org/2000/svg" xmlns:xlink="http://www.w3.org/1999/xlink" width="13.5pt" height="13.5pt" viewBox="0 0 13.5 13.5" version="1.1">
<defs>
<clipPath id="clip1">
  <path d="M 0 0 L 13 0 L 13 13.5 L 0 13.5 Z M 0 0 "/>
</clipPath>
</defs>
<g id="surface1">
<g clip-path="url(#clip1)" clip-rule="nonzero">
<path style=" stroke:none;fill-rule:evenodd;fill:rgb(92.155457%,92.155457%,92.155457%);fill-opacity:1;" d="M 8.757812 13.027344 C 8.757812 13.027344 4.515625 13.027344 4.515625 13.027344 C 4.515625 13.027344 4.515625 6.628906 4.515625 6.628906 C 4.515625 6.628906 0.273438 6.628906 0.273438 6.628906 C 0.273438 6.628906 6.636719 0.265625 6.636719 0.265625 C 6.636719 0.265625 13 6.628906 13 6.628906 C 13 6.628906 8.757812 6.628906 8.757812 6.628906 C 8.757812 6.628906 8.757812 13.027344 8.757812 13.027344 Z M 8.757812 13.027344 "/>
</g>
<path style="fill:none;stroke-width:1;stroke-linecap:square;stroke-linejoin:miter;stroke:rgb(0%,0%,0%);stroke-opacity:1;stroke-miterlimit:1.414214;" d="M 17.515625 26.054688 C 17.515625 26.054688 9.03125 26.054688 9.03125 26.054688 C 9.03125 26.054688 9.03125 13.257812 9.03125 13.257812 C 9.03125 13.257812 0.546875 13.257812 0.546875 13.257812 C 0.546875 13.257812 13.273438 0.53125 13.273438 0.53125 C 13.273438 0.53125 26 13.257812 26 13.257812 C 26 13.257812 17.515625 13.257812 17.515625 13.257812 C 17.515625 13.257812 17.515625 26.054688 17.515625 26.054688 Z M 17.515625 26.054688 " transform="matrix(0.5,0,0,0.5,0,0)"/>
</g>
</svg>
